X: 142
T: Miss Isabella Murdoch's Reel
%R: strathspey, reel
B: Urbani & Liston "A Selection of Scotch, English Irish, and Foreign Airs", Edinburgh 1800, p.55 #2
F: http://www.vwml.org/browse/browse-collections-dance-tune-books/browse-urbani1800
Z: 2014 John Chambers <jc:trillian.mit.edu>
N: The 2nd strain has initial repeat but no final repeat; not fixed.
M: C|
L: 1/8
K: D
G |\
F<DF>A d>AB>G | F>Ad>f e>E E>G |\
F<DF>A d>AB>G | E>ege fdd :|\
|: a/g/ |\
f>ad>a b>df>d | g>ef>d Be ea/g/ |
f>ad>a b>da>d | g>ea>g fdd a/g/ |\
f>ad>a b>da>d | g>ef>d Bee a/g/ |\
f>ag>b a>df>d | B>eg>e fdd |]

%%sep 1 1 500
%%sep 1 1 500
